X: 38306
T: St. Stephen's Day Storm! No Lights And No Cold Beer
R: reel
M: 4/4
K: Gmajor
A|B2GB cAA2|(3fed cA BGGA|B2GB cAFD|CE (3DEF G3:|
|:D|G2Bd g2ag|=fddc ABBA|BGBd c2BA|GBAG FDEF|
G2Bd g2ag|=fddc ABBA|(3Bcd cA BGFD|CE (3DEF G3:|

